Numix-Light/scalable/actions/object-inverse.svg

<?xml version="1.0" encoding="UTF-8" standalone="no"?>
<svg
   xmlns:dc="http://purl.org/dc/elements/1.1/"
   xmlns:cc="http://creativecommons.org/ns#"
   xmlns:rdf="http://www.w3.org/1999/02/22-rdf-syntax-ns#"
   xmlns:svg="http://www.w3.org/2000/svg"
   xmlns="http://www.w3.org/2000/svg"
   xmlns:sodipodi="http://sodipodi.sourceforge.net/DTD/sodipodi-0.dtd"
   xmlns:inkscape="http://www.inkscape.org/namespaces/inkscape"
   viewBox="0 0 16 16"
   width="16"
   height="16"
   id="svg2"
   version="1.1"
   inkscape:version="0.91 r"
   sodipodi:docname="object-inverse.svg">
  <metadata
     id="metadata12">
    <rdf:RDF>
      <cc:Work
         rdf:about="">
        <dc:format>image/svg+xml</dc:format>
        <dc:type
           rdf:resource="http://purl.org/dc/dcmitype/StillImage" />
      </cc:Work>
    </rdf:RDF>
  </metadata>
  <defs
     id="defs10" />
  <sodipodi:namedview
     pagecolor="#ffffff"
     bordercolor="#666666"
     borderopacity="1"
     objecttolerance="10"
     gridtolerance="10"
     guidetolerance="10"
     inkscape:pageopacity="0"
     inkscape:pageshadow="2"
     inkscape:window-width="1280"
     inkscape:window-height="998"
     id="namedview8"
     showgrid="true"
     inkscape:zoom="7.375"
     inkscape:cx="-35.371865"
     inkscape:cy="5.1307797"
     inkscape:window-x="0"
     inkscape:window-y="0"
     inkscape:window-maximized="1"
     inkscape:current-layer="svg2">
    <inkscape:grid
       type="xygrid"
       id="grid2989" />
  </sodipodi:namedview>
  <path
     style="color:#353535;fill:#353535"
     d="M 8 3 C 5.2407507 3 3 5.2407407 3 8 C 3 10.75925 5.2407507 13 8 13 C 10.75925 13 13 10.75925 13 8 C 13 5.2407407 10.75925 3 8 3 z M 8 4 C 10.207399 4 12 5.7925937 12 8 C 12 10.207399 10.207399 12 8 12 L 8 4 z "
     id="path6" />
</svg>

<svg xmlns="http://www.w3.org/2000/svg" viewBox="0 0 16 16">
 <path d="m 8 3 c -2.759 0 -5 2.241 -5 5 c 0 2.759 2.241 5 5 5 c 2.759 0 5 -2.241 5 -5 c 0 -2.759 -2.241 -5 -5 -5 z m 0 1 c 2.207 0 4 1.793 4 4 c 0 2.207 -1.793 4 -4 4 l 0 -8 z" style="fill:#353535;color:#353535"/>
</svg>
